X: 9064
T: Da Grocer
R: reel
M: 4/4
K: Dmajor
ADD/D/D DEFA|defd edcd|BEE/E/E EFGB|gefd edB/c/d|
ADD/D/D DEFA|defd edcd|BEE/E/E Bcde|1 fdec d2dB:|2 fdec d2de||
fdd/d/d fgaf|gefd edBA|Bee/e/e edef|gefd edB/c/d|
ADD/D/D DEFA|defd edcd|BEE/E/E Bcde|1 fdec d2de:|2 fdec d4||

